X:1
T:Romanza
T:Romanza
T:Anonymous
T:(Romance)
T:This work is Public Domain, it is free to record, repost (score, video etc.), and distribute as you see fit. Attribution is appreciated, but not required. Please visit my website at http://www.paulyguitar.blogspot.com • Please consider supporting my work at http://www.patreon.com/paulbrookshorniii
T:This work is Public Domain, it is free to record, repost (score, video etc.), and distribute as you see fit. Attribution is appreciated, but not required. Please visit my website at http://www.paulyguitar.blogspot.com • Please consider supporting my work at http://www.patreon.com/paulbrookshorniii
C:Anonymous
Z:This work is Public Domain, it is free to record, repost (score, video etc.), and distribute as you see fit. Attribution is appreciated, but not required.
Z:Please visit my website at http://www.paulyguitar.blogspot.com • Please consider supporting my work at http://www.patreon.com/paulbrookshorniii
%%score ( 1 2 3 )
L:1/8
Q:1/4=120
M:3/4
K:G
V:1 treble-8 nm="Classical Guitar" snm="Guit."
V:2 treble-8 
V:3 treble-8 
V:1
"^Moderato \n\n" (3!4!bBG (3bBG (3bBG | (3bBG (3!2!aBG (3!2!gBG | (3gBG (3!1!fBG (3eBG | %3
 (3eBG (3!2!gBG (3!2!bBG | (3!4!e'BG (3e'BG (3e'BG | (3e'BG (3!4!d'BG (3!4!c'BG | %6
"^V" (3!4!c'ec (3!3!bec (3!1!aec | (3aec (3!3!bec (3!4!c'ec | %8
"^VII" (3!1!bf!2!^d (3!3!c'fd (3!1!bfd | (3!4!^d'f^d (3!3!c'fd (3!1!bfd | %10
 (3!4!bBG (3!2!aBG (3!2!gBG | (3gBG (3!1!fBG (3eBG | (3!4!f!0!B!3!A (3fBA (3fBA | %13
 (3!4!f!0!B!3!A (3!4!gBA (3!4!fBA | (3eBG (3eBG (3eBG | e6 ::[K:E] (3!4!gBG (3gBG (3gBG | %17
 (3gBG (3!2!fBG (3eBG |"^II" (3!4!e!1!A!3!F (3!4!dAF (3dAF | (3dAF (3!2!=dAF (3!4!^dAF | %20
"^VII" (3!3!c'!1!f!2!d (3c'fd (3c'fd | (3c'fd (3!4!d'fd (3!3!c'fd | %22
 (3!4!c'!3!g!2!e (3!1!bge (3bge | (3bge (3!4!c'ge"^IX" (3!4!d'!1!g!1!e | %24
 (3!4!e'!1!g!1!e (3e'ge (3e'ge | (3!4!e'ge (3!3!d'ge (3!2!=d'ge | %26
"^V" (3!4!c'!1!e!2!c (3c'ec (3c'ec | (3c'ec (3!3!bec (3!1!aec | (3!4!g!0!d!1!B (3gdB (3gdB | %29
"^II" (3!4!g!3!d!1!A (3!4!adB (3!1!fdB | (3eB!1!G (3eBG (3eBG | e6 :| (3!4!bB=G (3bBG (3bBG | %33
 (3bB=G (3!2!aBG (3!2!=gBG | (3=gB=G (3!1!fBG (3eBG | (3eB=G (3!2!=gBG (3!2!bBG | %36
 (3!4!e'B=G (3e'BG (3e'BG | (3e'B=G (3!4!=d'BG (3!4!=c'BG |"^V" (3!4!=c'e=c (3!3!bec (3!1!aec | %39
 (3ae=c (3!3!bec (3!4!=c'ec |"^VII" (3!1!bf!2!d (3!3!=c'fd (3!1!bfd | %41
 (3!4!d'fd (3!3!=c'fd (3!1!bfd | (3!4!bB=G (3!2!aBG (3!2!=gBG | (3=gB=G (3!1!fBG (3eBG | %44
 (3!4!f!0!B!3!A (3fBA (3fBA | (3!4!f!0!B!3!A (3!4!=gBA (3!4!fBA | (3eB=G (3eBG (3eBG | %47
 !arpeggio![GBe]6 |] %48
V:2
 E,6 | E,6 | E,6 | E,6 | E,6 | E,6 | !0!A,6 | A,6 | !1!B,6 | B,6 | E,6 | E,6 | !2!B,6 | !1!^D6 | %14
 !2!E2 !1!B,2 !3!G,2 | !0!E,6 ::[K:E] !1!E,6 | E,6 | !1!F,6 | F,6 | !1!B,6 | B,6 | E,6 | E,6 | %24
 E,6 | E,6 | !1!A,6 | A,6 | !2!B,6 | !1!B,6 | !3!E2 !2!B,2 !4!G,2 | E,6 :| E,6 | E,6 | E,6 | E,6 | %36
 E,6 | E,6 | !0!A,6 | A,6 | !1!B,6 | B,6 | E,6 | E,6 | !2!B,6 | !1!D6 | !2!E2 !1!B,2 !3!=G,2 | %47
 !2!!3![E,B,E]6 |] %48
V:3
 x6 | x6 | x6 | x6 | x6 | x6 | x6 | x6 | x6 | x6 | x6 | x6 | x6 | x6 | x6 | z2 B2 B2 ::[K:E] x6 | %17
 x6 | x6 | x6 | x6 | x6 | x6 | x6 | x6 | x6 | x6 | x6 | x6 | x6 | x6 | z2 B2 B2 :| x6 | x6 | x6 | %35
 x6 | x6 | x6 | x6 | x6 | x6 | x6 | x6 | x6 | x6 | x6 | x6 | x6 |] %48

